flaticon/design/mirror-horizontally-1.svg

<svg xmlns="http://www.w3.org/2000/svg" width="32" height="32" viewBox="0 0 24 24">
    <path d="M18.40625 0L1.59375 0 10 11.0625zM16.792969.800781L10 9.738281 3.207031.800781zM1.59375 24L18.40625 24 10 12.9375zM3.207031 23.199219L10 14.261719 16.792969 23.199219zM16.800781 11.601562C16.578125 11.601562 16.398438 11.777344 16.398438 12 16.398438 12.222656 16.578125 12.398438 16.800781 12.398438L17.199219 12.398438C17.421875 12.398438 17.601562 12.222656 17.601562 12 17.601562 11.777344 17.421875 11.601562 17.199219 11.601562zM10.800781 11.601562C10.578125 11.601562 10.398438 11.777344 10.398438 12 10.398438 12.222656 10.578125 12.398438 10.800781 12.398438L11.199219 12.398438C11.421875 12.398438 11.601562 12.222656 11.601562 12 11.601562 11.777344 11.421875 11.601562 11.199219 11.601562zM12.800781 11.601562C12.578125 11.601562 12.398438 11.777344 12.398438 12 12.398438 12.222656 12.578125 12.398438 12.800781 12.398438L13.199219 12.398438C13.421875 12.398438 13.601562 12.222656 13.601562 12 13.601562 11.777344 13.421875 11.601562 13.199219 11.601562zM14.800781 11.601562C14.578125 11.601562 14.398438 11.777344 14.398438 12 14.398438 12.222656 14.578125 12.398438 14.800781 12.398438L15.199219 12.398438C15.421875 12.398438 15.601562 12.222656 15.601562 12 15.601562 11.777344 15.421875 11.601562 15.199219 11.601562zM8.800781 11.601562C8.578125 11.601562 8.398438 11.777344 8.398438 12 8.398438 12.222656 8.578125 12.398438 8.800781 12.398438L9.199219 12.398438C9.421875 12.398438 9.601562 12.222656 9.601562 12 9.601562 11.777344 9.421875 11.601562 9.199219 11.601562zM6.800781 11.601562C6.578125 11.601562 6.398438 11.777344 6.398438 12 6.398438 12.222656 6.578125 12.398438 6.800781 12.398438L7.199219 12.398438C7.421875 12.398438 7.601562 12.222656 7.601562 12 7.601562 11.777344 7.421875 11.601562 7.199219 11.601562zM1.199219 11.601562L.800781 11.601562C.578125 11.601562.398438 11.777344.398438 12 .398438 12.222656.578125 12.398438.800781 12.398438L1.199219 12.398438C1.421875 12.398438 1.601562 12.222656 1.601562 12 1.601562 11.777344 1.421875 11.601562 1.199219 11.601562zM18.800781 12.398438L19.199219 12.398438C19.421875 12.398438 19.601562 12.222656 19.601562 12 19.601562 11.777344 19.421875 11.601562 19.199219 11.601562L18.800781 11.601562C18.578125 11.601562 18.398438 11.777344 18.398438 12 18.398438 12.222656 18.578125 12.398438 18.800781 12.398438zM2.800781 11.601562C2.578125 11.601562 2.398438 11.777344 2.398438 12 2.398438 12.222656 2.578125 12.398438 2.800781 12.398438L3.199219 12.398438C3.421875 12.398438 3.601562 12.222656 3.601562 12 3.601562 11.777344 3.421875 11.601562 3.199219 11.601562zM4.800781 11.601562C4.578125 11.601562 4.398438 11.777344 4.398438 12 4.398438 12.222656 4.578125 12.398438 4.800781 12.398438L5.199219 12.398438C5.421875 12.398438 5.601562 12.222656 5.601562 12 5.601562 11.777344 5.421875 11.601562 5.199219 11.601562zM4.800781 11.601562"/>
    <path d="M 21.195312 19.613281 L 19.269531 19.097656 C 21.886719 17.730469 23.601562 14.972656 23.601562 12 C 23.601562 8.761719 21.570312 5.773438 18.546875 4.566406 C 18.34375 4.484375 18.109375 4.585938 18.027344 4.789062 C 17.945312 4.996094 18.046875 5.226562 18.25 5.308594 C 20.972656 6.394531 22.800781 9.085938 22.800781 12 C 22.800781 14.800781 21.109375 17.386719 18.582031 18.546875 L 19.214844 16.183594 C 19.273438 15.972656 19.144531 15.75 18.929688 15.695312 C 18.71875 15.636719 18.5 15.765625 18.441406 15.976562 L 17.613281 19.070312 C 17.605469 19.09375 17.609375 19.117188 17.609375 19.140625 C 17.605469 19.164062 17.605469 19.183594 17.605469 19.203125 C 17.605469 19.21875 17.609375 19.234375 17.609375 19.246094 C 17.613281 19.273438 17.613281 19.304688 17.621094 19.332031 C 17.679688 19.496094 17.835938 19.601562 18 19.601562 C 18.011719 19.601562 18.023438 19.59375 18.03125 19.59375 L 20.988281 20.386719 C 21.023438 20.394531 21.058594 20.398438 21.089844 20.398438 C 21.269531 20.398438 21.429688 20.28125 21.476562 20.105469 C 21.535156 19.890625 21.40625 19.671875 21.195312 19.613281 Z M 21.195312 19.613281"/>
</svg>

<svg xmlns="http://www.w3.org/2000/svg" width="32" height="32" viewBox="0 0 24 24">
    <path d="M18.406 0H1.594L10 11.063zm-1.613.8L10 9.739 3.207.801zm0 0M1.594 24h16.812L10 12.937zm1.613-.8L10 14.261l6.793 8.937zm0 0M16.8 11.602a.398.398 0 1 0 0 .796h.4a.398.398 0 1 0 0-.796zm0 0M10.8 11.602a.398.398 0 1 0 0 .796h.4a.398.398 0 1 0 0-.796zm0 0M12.8 11.602a.398.398 0 1 0 0 .796h.4a.398.398 0 1 0 0-.796zm0 0M14.8 11.602a.398.398 0 1 0 0 .796h.4a.398.398 0 1 0 0-.796zm0 0M8.8 11.602a.398.398 0 1 0 0 .796h.4a.398.398 0 1 0 0-.796zm0 0M6.8 11.602a.398.398 0 1 0 0 .796h.4a.398.398 0 1 0 0-.796zm0 0M1.2 11.602H.8a.398.398 0 1 0 0 .796h.4a.398.398 0 1 0 0-.796zm0 0M18.8 12.398h.4a.398.398 0 1 0 0-.796h-.4a.398.398 0 1 0 0 .796zm0 0M2.8 11.602a.398.398 0 1 0 0 .796h.4a.398.398 0 1 0 0-.796zm0 0M4.8 11.602a.398.398 0 1 0 0 .796h.4a.398.398 0 1 0 0-.796zm0 0"/>
    <path d="M21.195 19.613l-1.925-.515c2.617-1.368 4.332-4.125 4.332-7.098 0-3.238-2.032-6.227-5.055-7.434a.4.4 0 0 0-.297.742C20.973 6.396 22.8 9.087 22.8 12c0 2.8-1.69 5.387-4.218 6.547l.633-2.363a.397.397 0 0 0-.285-.489.4.4 0 0 0-.489.282l-.828 3.093c-.008.024-.004.047-.004.07-.004.024-.004.044-.004.063 0 .016.004.031.004.043.004.027.004.059.012.086.059.164.215.27.379.27.012 0 .023-.008.031-.008l2.957.793c.035.008.07.011.102.011.18 0 .34-.117.387-.293a.402.402 0 0 0-.282-.492zm0 0"/>
</svg>
